X:1
T:St. Aelred, 88.84
T:John Bacchus Dykes, 1862
T:St. Aelred, 88.84
T:Public Domain
C:John Bacchus Dykes, 1862
Z:Public Domain
%%score ( 1 2 ) ( 3 4 )
L:1/8
M:3/4
K:Eb
V:1 treble 
V:2 treble 
V:3 bass 
V:4 bass 
V:1
 [EG]2 [EG]2 [EG]2 | [DG]4 [EG]2 | [FA]4 [FA]2 | [EG]6 | [Gc]2 [Ge]2 [Bd]2 | [Ac]4 [GB]2 | %6
 (C2 F2) [EA]2 | [DG]6 | [EG]2 [EG]2 [EG]2 | [DB]4 [DB]2 | [Cc]4 [_DB]2 | [CA]6 | E6 | [EF]6 | %14
 [EG]6 |] %15
V:2
 x6 | x6 | x6 | x6 | x6 | x6 | A4 x2 | x6 | x6 | x6 | x6 | x6 | E6 | x6 | x6 |] %15
V:3
 [C,C]2 (C,D,) (E,F,) | [G,=B,]4 [C,C]2 | (F,3 G,) (A,B,) | C6 | [CE]2 [CE]2 [G,B,]2 | %5
 (C2 E2) [E,E]2 | (E2 D2) [F,C]2 | [G,=B,]6 | [C,C]2 [C,C]2 [C,E,]2 | [B,,F,]4 [B,,G,]2 | %10
 [A,,A,]4 [A,,E,]2 | [A,,E,]6 | [A,,C]6 | [A,,C]6 | [E,,E,B,]6 |] %15
V:4
 x2 C2 C2 | x6 | C4 C2 | C6 | x6 | A,4 x2 | F,4 x2 | x6 | x6 | x6 | x6 | x6 | x6 | x6 | x6 |] %15

